weblate/static/state/update.svg

<svg xmlns="http://www.w3.org/2000/svg" xmlns:xlink="http://www.w3.org/1999/xlink" width="14" height="14" version="1.1" viewBox="0 0 14 14"><title>EE17097F-CB22-4844-A7CE-19015510591B</title><desc>Created with sketchtool.</desc><g id="App-UI" fill="none" fill-rule="evenodd" stroke="none" stroke-width="1"><g id="Overview" fill="#2A3744" fill-rule="nonzero" transform="translate(-229.000000, -429.000000)"><g id="MiniClock" transform="translate(229.000000, 429.000000)"><path id="Combined-Shape" d="M7,14 L7,11.85 C8.28629998,11.85 9.51991645,11.3390193 10.4294679,10.4294679 C11.3390193,9.51991645 11.85,8.28629998 11.85,7 C11.85,4.32 9.67,2.15 7,2.15 C4.32141896,2.15 2.15,4.32141896 2.15,7 L0,7 C0,3.13 3.14,0 7,0 C10.8659932,1.77635684e-15 14,3.13400675 14,7 C14,10.87 10.86,14 7,14 Z M6,4 L7.5,4 L7.5,6.82 L9.94,8.23 L9.19,9.53 L6,7.69 L6,4 Z"/></g></g></g></svg>

<svg width="14" height="14" version="1.1" viewBox="0 0 14 14" xmlns="http://www.w3.org/2000/svg"><g transform="translate(-229,-429)" fill="#2a3744"><g transform="translate(229,429)"><path d="m7 14v-2.15c1.2863 0 2.5199-0.51098 3.4295-1.4205 0.90955-0.90955 1.4205-2.1432 1.4205-3.4295 0-2.68-2.18-4.85-4.85-4.85-2.6786 0-4.85 2.1714-4.85 4.85h-2.15c0-3.87 3.14-7 7-7 3.866 0 7 3.134 7 7 0 3.87-3.14 7-7 7zm-1-10h1.5v2.82l2.44 1.41-0.75 1.3-3.19-1.84z"/></g></g></svg>
